X: 533
T: Dağlar Dayanmaz Enînine
C: Şevki Bey
O: Turkey
F: http://compmusic.upf.edu/node/140
N: ussak--sarki--aksak--daglar_dayanmaz--sevki_bey
N: makam= ussak
N: form= sarki
N: usul= aksak = 9/8
M: 9/8
L: 1/16
K: C _2/4B   
Q: 1/4=156
%%MIDI tuningsystem comma53
z4 G4 d8 c2 | B3AA2 c2B2 BAG6  | z2fe d2dc c2_1/4B2 dc_2/4B2 BA | 
w:  Dağ lar   |  *  *  *  da yan  |  maz  *  *  e *  nî *  *  *  *  ni  | 
A6 efed cBA6  | z4 A2a2 g2fe d4 f2 | \
w:  ne  SAZ  |  dil_ i  mah  | 
e2 d2c2 B2A2 G2e4ed  | 
w:  zu *  *  *  *  *  *  nu  | 
d6_1/4B2 c2_2/4BA A6 | z4G4d8c2  | B3A A2c2 B2BA G6 | \
w:  mun   SAZ  |  Dağ lar   |  *  *  *  da yan  | 
z2 fed2 dcc2 _1/4B2dc _2/4B2BA  | 
w:  maz  *  *  e *  nî *  *  *  *  ni  | 
A6ef edcB A6 | z4A2 a2g2 fed4f2  | e2d2 c2B2 A2G2 e4 ed | 
w:  ne  SAZ  |  dil_ i  mah  |  zu *  *  *  *  *  *  nu  | 
d4z2 efed dcd4z2  | gffe e3d d2ed d4 z2 | 
w:  mun   SAZ  |  Bu *  lun *  *  *  ma dı  *  git  | 
e3dc2 d2e2 fgfe d2c2  | dccB B3A A8 z2 | \
w:  ti   |  de *  va *  *  *  sı   | 
G3A_1/4B2 c2d2 edd4z2  | 
w:  der  | 
d2dc c3B B2BA A4 G2 | e2 dcc4c2 _1/4B2dc _2/4B2BA  | 
w:  derd_  |  i  de *  *  ru *  *  *  *  nu  | 
A6ef eddc d4 z2 | gf fee3dd2 edd4z2  | \
w:  mun   SAZ  |  Bu *  lun *  *  *  ma dı  *  git  | 
e3d c2d2 e2fg fed2 c2 | 
w:  ti   | 
dc cBB3AA8z2  | G3A _1/4B2c2 d2ed d4 z2 | \
w:  de *  va *  *  *  sı   |  der  | 
d2 dcc3BB2 BAA4G2  | 
w:  derd_  | 
e2dc c4 c2_1/4B2 dc_2/4B2 BA | A6 agg^f f^ef4z2  | \
w:  i  de *  *  ru *  *  *  *  nu  |  mun   SAZ  | 
^f2g2 f2^e2 f2e2 f2g2 a2 | 
w:  E sî *  *  ri  *  ol  | 
a2 ag^f2 edc2 d2c4_1/4B2  | z2g2 ^f2g2 fed2 e4 ed | \
w:  dum   |  mih *  *  *  *  *  *  net_  | 
d4z2 fedc _1/4Bcd4z2  | 
w:  i   | 
c2d8-d2 c2B2 A2 | A2 g2^f2 g2fe d2e2 efed  | \
w:  ta  |  lih_ *  i  du *  *  *  *  *  *  mu  | 
d4 z2fe dc_1/4Bc d4 z2 | 
w:  mun   SAZ  | 
gf fee3dd2 edd4z2  | e3d c2d2 e2fg fed2 c2 | 
w:  Bu *  lun *  *  *  ma dı  *  git  |  ti   | 
dc cBB3AA8z2  | G3A _1/4B2c2 d2ed d4 z2 | \
w:  de *  va *  *  *  sı   |  der  | 
d2 dcc3BB2 BAA4G2  | 
w:  derd_  | 
e2dc c4 c2_1/4B2 dc_2/4B2 BA | A6 efed dcd4z2  | \
w:  i  de *  *  ru *  *  *  *  nu  |  mun   SAZ  | 
gffe e3d d2ed d4 z2 | 
w:  Bu *  lun *  *  *  ma dı  *  git  | 
e3dc2 d2e2 fgfe d2c2  | dccB B3A A8 z2 | \
w:  ti   |  de *  va *  *  *  sı   | 
G3A_1/4B2 c2d2 edd4z2  | 
w:  der  | 
d2dc c3B B2BA A4 G2 | e2 dcc4c2 _1/4B2dc _2/4B2BA  | 
w:  derd_  |  i  de *  *  ru *  *  *  *  nu  | 
A6|
w:  mun    | 


